X: 04094
T: TROY'S JIG
C: Bob McQuillen 2 May 79
B: Bob's Note Book 04 #94
%R: jig
Z: 2020 John Chambers <jc:trillian.mit.edu>
M: 6/8
L: 1/8
K: D
|: DFA GBG | FAd fed | DFA GBG | AFD E2A \
|  DFA GBG | FAd fed | BGB Afd | cBc d3 :|
|: faf ede | fef dBA | faf ede | fga afd \
|  bgb a2f | def ecA | faf gec | edd d3 :|
%%begintext align
%% Troy Brooks of Temple, H.H.
%% is one of a very special group
%% of people who always manages
%% to bring happiness into my life.
%%endtext

%%sep 1 1 500

%%sep 1 1 500

